X:35
T: Anthony Frawley's
S: B.Breathnach:"Ceol Rince na hEireann" II/9
Z: B.Black
L: 1/8
M: 6/8
R: jig
K: G
B/A/|GED GBA|GED G2A|GED GAB|dBA B2A|
GED GAB|def ggg|bag ege|dBG A2 :|
B/c/|ddd edB|def gfe|ddd edB|dBG ABc|
ddd edB|def g2a|bag ege|dBG A2 :|

